svgs/sharp-light/bowl-spoon.svg

<svg xmlns="http://www.w3.org/2000/svg" viewBox="0 0 512 512"><!--! Font Awesome Pro 6.6.0 by @fontawesome - https://fontawesome.com License - https://fontawesome.com/license (Commercial License) Copyright 2024 Fonticons, Inc. --><path d="M112 160c-49 0-80-33.1-80-64s31-64 80-64l80 0 0 64 0 64-80 0zM112 0C50.1 0 0 43 0 96s50.1 96 112 96l80 0 32 0 0-32 0-48 272 0 16 0 0-32-16 0L224 80l0-48 0-32L192 0 112 0zm48 453l-17.8-8.8C82.1 414.5 39.7 354.3 35.5 283.3L33.9 256l444.1 0-1.6 27.3c-4.2 71-46.6 131.2-106.6 160.9L352 453l0 19.9 0 7.1-192 0 0-7.1 0-19.9zM1.9 256l1.7 29.2C8.5 368.1 58 438.2 128 472.9l0 7.1 0 32 32 0 192 0 32 0 0-32 0-7.1c70-34.6 119.5-104.8 124.4-187.7l1.7-29.2 1.9-32-32.1 0L32.1 224 0 224l1.9 32z"/></svg>

<svg xmlns="http://www.w3.org/2000/svg" viewBox="0 0 512 512"><!--! Font Awesome Pro 6.4.0 by @fontawesome - https://fontawesome.com License - https://fontawesome.com/license (Commercial License) Copyright 2023 Fonticons, Inc. --><path d="M112 160c-49 0-80-33.1-80-64s31-64 80-64h80V96v64H112zM112 0C50.1 0 0 43 0 96s50.1 96 112 96h80 32V160 112H496h16V80H496 224V32 0H192 112zm48 453l-17.8-8.8C82.1 414.5 39.7 354.3 35.5 283.3L33.9 256H478.1l-1.6 27.3c-4.2 71-46.6 131.2-106.6 160.9L352 453v19.9V480H160v-7.1V453zM1.9 256l1.7 29.2C8.5 368.1 58 438.2 128 472.9V480v32h32H352h32V480v-7.1c70-34.6 119.5-104.8 124.4-187.7l1.7-29.2 1.9-32H479.9 32.1 0l1.9 32z"/></svg>
